X:524
T:
N:
S:Uppt. såsom samlaren hört den spelas av Karl Odin Kaupe i Fröjel.
R:vals
O:Gotland, Fröjel
M:3/4
L:1/8
K:C
(3 G,CE| LG2 (GC)(EG)|Lc2 (cG)(ce)|(ge)(cG) (EA)|
G4 F2|A2 fedc|(cB)(BA)(AG)|(^FG) (AG)(=FD)|
C2 z2::(3 ede| c2 c2 {c}Bc|A2 A2 {A}^GA|A^F GA Bc|
^c2 d fef|d2 d2 {d}^cd|B2 B2 {c}BA|(GA)(Bc)(de)|c2 z2:|
K:F
|:AB|=Bcdc f>d|c4 AF|(EF) (GA) (BG)|FG AB dc|=Bc dc fd|
c4 AF|(EG) (Bd) (cE)|F2 z2::cC|E2 (EG)(FA)|G3 (ceg)|
(bg)(ec)(BG)|LE2 C2 AB|(=Bc)(dc)(fd)|c4 AF|
(EF)(GA)(BG)|F4:|

